X: 1
T:BEWARRP2- The Rippels
S:Walsh's 24 Country Dances for the Year 1736
Q:1/4=120
L:1/8
M:6/8
K:A mixolydian
A|FAAf2e|dBBB2A|FAA fed|cAAA2::a|fef aef|\
fed Bde|fef aef|dAAA2:|]
